X:8
T:The Doune of Invernoughty
R:reel
C:Alexander Walker
O:19th century Scottish
S:Silver Apple News, 2004
D:Dan Hughie MacEachern, The Land of My Love
B:Alexander Walker Collection
Z:Paul Stewart Cranford (P.S.C.), <http://www.cranfordpub.com>
Q:333
L:1/8
M:C|
K:Edor
z|Be e/e/e gefd|ecdB AFDF|Ee e/e/e gefd|BdAF E/E/E E:|
||e|BEGE BEEc|defe dDAF|BEGB egfe|dBAF E/E/E Ee|
BEGE BEEc|defe dDDF|Bgfa gbef|dBAF E/E/E E|]
